!!!COM: Palestrina, Giovanni Perluigi da
!!!OPR: Missa Sine nomine (Mantuan)
!!!OTL: Gloria
**kern	**kern	**kern	**kern
*Ibass	*Itenor	*Icalto	*Icant
!Bassus	!Tenor	!Altus	!Cantus
*clefF4	*clefGv2	*clefG2	*clefG2
*k[]	*k[]	*k[]	*k[]
*G:mix	*G:mix	*G:mix	*G:mix
*M4/2	*M4/2	*M4/2	*M4/2
=1	=1	=1	=1
0G	0B	0d	0g
=2	=2	=2	=2
1G	1B	1d	1g
1E	1B	1e	1g
=3	=3	=3	=3
1C	1c	1e	1g
1D	1A	1d	1f
=4	=4	=4	=4
1G	1B	2d	1g
.	.	2.e	.
2A	2c	.	2e
.	.	4d	.
2A	2c	[2c	2f
=5	=5	=5	=5
0G	0d	2c]	0g
.	.	4B	.
.	.	4A	.
.	.	1B	.
=6	=6	=6	=6
1C	1c	1e	1.g
1D	2B	1d	.
.	2A	.	2f
=7	=7	=7	=7
2E	2G	2g	2e
2C	1c	2g	2e
1G	.	1g	1d
.	2B	.	.
=8	=8	=8	=8
0C	0c	1g	1e
.	.	1e	1g
=9	=9	=9	=9
0r	0r	1d	1f
.	.	1B	1d
=10	=10	=10	=10
2r	2r	1c	0e
1c	1g	.	.
.	.	1r	.
2c	2g	.	.
=11	=11	=11	=11
1A	1f	0r	0r
2B	2d	.	.
2B	2d	.	.
=12	=12	=12	=12
0c	1e	2r	2r
.	.	1e	1g
.	1r	.	.
.	.	2e	2g
=13	=13	=13	=13
0r	0r	1d	1f
.	.	1B	1d
=14	=14	=14	=14
2r	2r	1c	0e
2c	2g	.	.
2c	2g	1r	.
2c	2g	.	.
=15	=15	=15	=15
1A	1f	0r	0r
1B	1d	.	.
=16	=16	=16	=16
1c	1e	1r	1r
[1C	[1c	[1e	[1g
=17	=17	=17	=17
2C]	2c]	2e]	2g]
2C	2c	2e	2g
1C	1c	1e	1g
=18	=18	=18	=18
1.G	1.B	1.d	1.g
2D	2A	2d	2f
=19	=19	=19	=19
1D	1A	1d	2f
.	.	.	2.a
1F	1A	1c	.
.	.	.	4g
.	.	.	[2f
=20	=20	=20	=20
0C	1G	0c	2f]
.	.	.	4e
.	.	.	4d
.	1r	.	1e
=21	=21	=21	=21
1C	1g	2r	2r
.	.	1c	1e
1E	1g	.	.
.	.	2B	2e
=22	=22	=22	=22
1F	1f	1A	1c
1C	2e	[1G	1c
.	[2e	.	.
=23	=23	=23	=23
1E	2e]	1G]	1g
.	2c	.	.
2D	2d	1A	2f
2F	[2c	.	[2a
=24	=24	=24	=24
1E	4c]	2c	4a]
.	4B	.	4g
.	2G	2c	1g
1D	1A	1d	.
.	.	.	2f#
=25	=25	=25	=25
0G	1G	0B	1g
.	2r	.	2r
.	2G	.	2g
=26	=26	=26	=26
0r	2B	0r	2g
.	2c	.	2g
.	1d	.	1f
=27	=27	=27	=27
0r	2c	0r	2e
.	1f	.	1a
.	2e	.	2g
=28	=28	=28	=28
0r	1d	0r	1f
.	1c	.	1e
=29	=29	=29	=29
0G	0B	0d	0g
=30	=30	=30	=30
1E	2B	1e	1g
.	1e	.	.
1A	.	1c	2e
.	4d	.	2f
.	4c	.	.
=31	=31	=31	=31
1G	1B	1d	1g
1c	1e	2r	2r
.	.	[2c	2g
=32	=32	=32	=32
1F	1f	2c]	1.a
.	.	2.d	.
1A	2e	.	.
.	.	4c	.
.	2c	[2c	2f
=33	=33	=33	=33
1G	1d	2c]	1g
.	.	2B	.
2r	1e	2c	2r
[2c	.	[2g	[2e
=34	=34	=34	=34
2c]	0r	2g]	2e]
2c	.	2g	2e
1c	.	1g	1e
=35	=35	=35	=35
1F	0r	1a	1f
1c	.	1g	1e
=36	=36	=36	=36
1.C	0r	1.e	1.g
2D	.	2d	2f
=37	=37	=37	=37
2E	0r	2c	2e
2C	.	2c	2e
1G	.	1B	1d
=38	=38	=38	=38
0F	0f	0c	0a
=39	=39	=39	=39
0C	0e	0c	0g
=40	=40	=40	=40
0D	0d	1A	0f
.	.	1B	.
=41	=41	=41	=41
1C	1g	1c	0e
1c	2r	2r	.
.	[2e	[2c	.
=42	=42	=42	=42
0G	2e]	2c]	1g
.	4d	4B	.
.	4c	4A	.
.	2d	1B	2g
.	[2e	.	[2g
=43	=43	=43	=43
0A	2e]	0c	2g]
.	2d	.	4f#
.	.	.	4e
.	[1c	.	1f#
=44	=44	=44	=44
[0G	2c]	[0d	0g
.	4B	.	.
.	4A	.	.
.	1B	.	.
=45	=45	=45	=45
1G]	2r	1d]	2r
.	2G	.	2g
1r	2A	1r	2f
.	2B	.	2d
=46	=46	=46	=46
1r	1c	1r	1e
2r	1B	2r	1d
2G	.	2g	.
=47	=47	=47	=47
2A	0r	2f	0r
2B	.	2d	.
1c	.	1e	.
=48	=48	=48	=48
1B	2r	1d	2r
.	2G	.	2g
1r	2A	1r	2f
.	2B	.	2d
=49	=49	=49	=49
1r	1c	1r	1e
2r	2B	2r	1d
2G	2B	2G	.
=50	=50	=50	=50
2F	2c	2A	0r
2D	2d	2B	.
1C	1e	1c	.
=51	=51	=51	=51
2G	2d	1B	2r
2E	2g	.	2G
2F	2f	1r	2A
2G	2d	.	2B
=52	=52	=52	=52
0A	2f	2r	0c
.	2.e	2c	.
.	.	2e	.
.	4d	.	.
.	[2c	2f	.
=53	=53	=53	=53
0G	2c]	0g	0d
.	4B	.	.
.	4A	.	.
.	1B	.	.
=54	=54	=54	=54
[0C	[0c	[0g	[0e
=55	=55	=55	=55
0C]	0c]	0g]	0e]
=56	=56	=56	=56
0C	0c	0e	0g
=57	=57	=57	=57
1G	1B	1d	1g
1E	1G	1c	1g
=58	=58	=58	=58
1D	1A	1d	1f
1G	[1B	1d	1g
=59	=59	=59	=59
1E	2B]	1e	1g
.	2c	.	.
1F	1A	1c	1f
=60	=60	=60	=60
1C	2G	1c	1e
.	2.g	.	.
[1c	.	[1e	[1g
.	4f	.	.
.	4e	.	.
.	4d	.	.
=61	=61	=61	=61
1c]	1c	1e]	1g]
1B	1G	1d	1g
=62	=62	=62	=62
1c	1c	1e	1g
1B	1d	2d	1g
.	.	[2d	.
=63	=63	=63	=63
0A	0e	2d]	0a
.	.	4c#	.
.	.	4B	.
.	.	1c#	.
=64	=64	=64	=64
1D	1d	1d	1f#
1r	1r	1r	1r
=65	=65	=65	=65
0G	0B	0d	0g
=66	=66	=66	=66
1G	1B	1d	1g
1C	1c	1e	1g
=67	=67	=67	=67
1D	1A	1d	1f
1G	[1B	1d	1g
=68	=68	=68	=68
1E	2B]	1e	1g
.	2c	.	.
1F	1A	1c	1f
=69	=69	=69	=69
1C	1G	1c	1e
[1G	[1B	[1d	[1g
=70	=70	=70	=70
2G]	2B]	2d]	2g]
2G	2B	2d	2g
1G	1B	1d	1g
=71	=71	=71	=71
1.F	1.c	1.f	1.a
2E	2c	2g	2g
=72	=72	=72	=72
1F	1c	1a	1f
1C	1c	1g	1e
=73	=73	=73	=73
1G	1B	1g	1d
1A	2A	1f	1c
.	[2c	.	.
=74	=74	=74	=74
0G	2c]	0g	0d
.	4B	.	.
.	4A	.	.
.	1B	.	.
=75	=75	=75	=75
1C	1c	0e	1c
2r	2r	.	2r
2c	2e	.	2g
=76	=76	=76	=76
1c	1e	0r	1g
2B	2d	.	2g
2G	2B	.	2g
=77	=77	=77	=77
2.A	2.c	0r	2.e
4F	4A	.	4d
2G	2B	.	2e
[2A	[2c	.	[2f
=78	=78	=78	=78
4A]	4c]	0r	4f]
4G	4B	.	4e
2E	2G	.	1e
1F	1A	.	.
.	.	.	2d
=79	=79	=79	=79
1E	1B	1r	0e
[1A	2r	2r	.
.	[2c	[2e	.
=80	=80	=80	=80
2A]	2c]	2e]	0r
2G#	2B	2e	.
2A	2c	2e	.
2G#	2B	2e	.
=81	=81	=81	=81
1A	1c	1e	1r
2D	2d	2.d	[1a
[2d	[2f	.	.
.	.	8c	.
.	.	8B	.
=82	=82	=82	=82
2d]	2f]	1A	2a]
2c#	2e	.	2a
2d	2f	2r	2a
2c#	2e	[2e	2a
=83	=83	=83	=83
1d	1f	4e]	0a
.	.	4d	.
.	.	1d	.
1A	1e	.	.
.	.	2c#	.
=84	=84	=84	=84
0D	0d	1d	1f#
.	.	2r	2r
.	.	[2f	[2a
=85	=85	=85	=85
0r	0r	2f]	2a]
.	.	2e	2g
.	.	2d	2f
.	.	2c	2e
=86	=86	=86	=86
0r	0r	2f	2d
.	.	2e	2c
.	.	1d	1f
=87	=87	=87	=87
2r	2r	1c	0e
2A	2A	.	.
2G	2B	1r	.
2A	2c	.	.
=88	=88	=88	=88
1F	1d	0r	0r
1G	1B	.	.
=89	=89	=89	=89
0C	1c	2r	2r
.	.	2c	2e
.	1r	1c	1e
=90	=90	=90	=90
0r	0r	2B	2d
.	.	2c	2e
.	.	1A	1f
=91	=91	=91	=91
0r	0r	1B	1d
.	.	1c	1e
=92	=92	=92	=92
0C	0c	0e	0g
=93	=93	=93	=93
0G	2.B	1d	0g
.	4c	.	.
.	2d	1B	.
.	[2e	.	.
=94	=94	=94	=94
0A	4e]	2.c	1e
.	4d	.	.
.	4c	.	.
.	4B	4d	.
.	2A	2e	1c
.	[2c	2f	.
=95	=95	=95	=95
0G	2c]	0g	0d
.	4B	.	.
.	4A	.	.
.	1B	.	.
=96	=96	=96	=96
2C	2c	1g	2e
2c	2e	.	2g
2c	2e	1r	2g
2B	2d	.	2g
=97	=97	=97	=97
1c	1e	0r	1g
1A	1f#	.	1c
=98	=98	=98	=98
2G	1g	2r	[0d
2G	.	2B	.
2G	1r	2B	.
2F#	.	2A	.
=99	=99	=99	=99
1G	1r	1B	1d]
1E	2r	1c	2r
.	2G	.	2g
=100	=100	=100	=100
1D	2A	1d	2f
.	2B	.	2f
2r	1c	2r	1e
2A	.	2c	.
=101	=101	=101	=101
2G	1r	2d	1r
2G	.	2e	.
1F	2r	1f	2r
.	2A	.	2a
=102	=102	=102	=102
1r	2B	1r	2g
.	2c#	.	2g
2r	1d	2r	1f
2D	.	2d	.
=103	=103	=103	=103
2E	1r	2c	1r
2F#	.	2c	.
1G	2r	1B	2r
.	2B	.	2d
=104	=104	=104	=104
1r	2c	1r	2e
.	2d	.	2f
2r	2e	2r	2g
[2C	[2c	[2e	[2g
=105	=105	=105	=105
2C]	2c]	2e]	2g]
2C	2c	2e	2g
1F	1c	1f	1a
=106	=106	=106	=106
1D	1d	1f	1a
1E	1B	[1e	2.g
.	.	.	4f
=107	=107	=107	=107
1C	1c	1e]	4e
.	.	.	4c
.	.	.	1g
[1D	[1A	[1d	.
.	.	.	4f#
.	.	.	4e
=108	=108	=108	=108
1D]	1A]	1d]	1f#
[1C	[1c	[1e	[1g
=109	=109	=109	=109
1C]	1c]	1e]	0g]
1G	1B	1d	.
=110	=110	=110	=110
[0G	[0B	[0d	[0g
=111	=111	=111	=111
0G]	0B]	0d]	0g]
==	==	==	==
*-	*-	*-	*-
!!!CDT: 1525/^1526/-1594/2/2
!!!OCY: Italia
!!!AGN: Mass (Free)
!!!AST: renaissance, vocal
!!!ASW: Motet (Maffoni)
!!!PWK: Masses, Book Mantuan II
!!!RNB: Cadence finals: C
!!!YOR: Le Opere Complete, v. 19, p. 168
!!!YOO: Rome, Italy: Fratelli Scalera
!!!END: 1992//
!!!EED: John Miller
!!!YEC: Copyright 2000, John Miller
!!!YEN: United States of America
!!!YEM: Rights to all derivative electronic formats reserved.
!!!YEM: Refer to licensing agreement for further details.
!!!YEM: This file must be accompanied by the licensing agreement.
!!!YEM: A copy of the licensing agreement may be found at http://www.music-cog.ohio-state.edu/HumdrumDatabases/Palestrina/license.txt
!!!EMD: converted to Humdrum by Bret Aarden
